X: 12531
T: Farewell To Ireland
R: reel
M: 4/4
K: Adorian
|:A3B e3f|GEDB GA (3BAG|A2 AB e3f|gedB eAAG|
AGAB e3f|gedB g2 ag|edeg a2 ba|gedB BA A2:|
K:AMix
|:a3b agef|~g3a gedg|ea ~a2 agef|gedB eA A2|
agef gage|dedB GABd|eA ~A2 efga|gedB BA A2:|
|:eA ~A2 eA ~A2|dG ~G2 dG (3Bcd|eA ~A2 ~e3f|gedB BA A2|
eA ~A2 eA ~A2|dedB GABd|~e3 d efga|gedB BA A2:|
|:aece aece|gd (3Bcd gdBd|aece a3f|gedB BA A2|
agef gafe|dedB GABd|eA ~A2 efga|gedB BA A2:|

